X: 10087
T: PROUTY'S POLKA
C: Bob McQuillen 29 Oct 93
B: Bob's Note Book 10 #87
%R: polka
Z: 2020 John Chambers <jc:trillian.mit.edu>
M: C
L: 1/8
K: D
FG \
| A2AG FDFA | d2B2 B2dB | A2AG FDFA | Bdfd edcB |\
| A2AG FDFA | d2Bd edcB | ABcd efgc | e2d2 d2  :|
|: FG \
| ABde f2fe | d2fd edBd | A2d2 B2dB | AFDF E2FG |\
| ABde f2fe | d2fd edBd | Adfd ceag | f2d2 d2  :|
%%begintext align
%% Do you know Scott
%% Prouty? He helps out in the Augusta office (he's been there several
%% years) and  he's studying guitar! I don't know if he's in college
%% yet - must be getting close - anyway he's a real nice dude &
%% I thought he should have this tune - So here you are Scotty,
%% and I hope you like it - All the best to you &  See you next year!
%%endtext
